main/static/img/legend/osmand/barrier/barrier_barrier_debris_day.svg

<svg width="300" height="40" viewBox="0 0 300 40" fill="none" xmlns="http://www.w3.org/2000/svg" xmlns:xlink="http://www.w3.org/1999/xlink" version="1.1">

<g transform="translate(130.000000, 0.000000) scale(2.500000 2.500000) "> 

  <metadata
     id="metadata8">
    <rdf:RDF>
      <cc:Work
         rdf:about="">
        <dc:format>image/svg+xml</dc:format>
        <dc:type
           rdf:resource="http://purl.org/dc/dcmitype/StillImage" />
      </cc:Work>
    </rdf:RDF>
  </metadata>
  <defs
     id="defs6" />
  <sodipodi:namedview
     pagecolor="#ffffff"
     bordercolor="#666666"
     borderopacity="1"
     objecttolerance="10"
     gridtolerance="10"
     guidetolerance="10"
     inkscape:pageopacity="0"
     inkscape:pageshadow="2"
     inkscape:window-width="1920"
     inkscape:window-height="1014"
     id="namedview4"
     showgrid="false"
     inkscape:zoom="14.75"
     inkscape:cx="8"
     inkscape:cy="8"
     inkscape:window-x="1920"
     inkscape:window-y="0"
     inkscape:window-maximized="1"
     inkscape:current-layer="svg4" />
  <path
     style="opacity:0.81199999;vector-effect:none;fill:#ebe7e4;fill-opacity:1;stroke-width:0.99999988;stroke-linecap:butt;stroke-linejoin:miter;stroke-miterlimit:4;stroke-dasharray:none;stroke-dashoffset:0;stroke-opacity:1"
     id="path4"
     d="M 9.9942639,0.55246327 A 0.951007,0.951007 0 0 0 9.8096023,0.57092613 L 7.2243407,1.1895422 a 0.951007,0.951007 0 0 0 -0.6555485,0.581684 0.951007,0.951007 0 0 0 -0.350857,0.3693225 l -0.018466,0.036936 A 0.951007,0.951007 0 0 0 5.69165,2.2051847 L 3.4018466,2.9807631 A 0.951007,0.951007 0 0 0 2.7555311,3.922536 L 2.7739972,4.2272278 2.5985688,4.1625918 A 0.951007,0.951007 0 0 0 1.3890355,4.8735393 L 0.91814863,7.163342 A 0.951007,0.951007 0 0 0 1.6567948,8.2805442 L 0.81658469,9.0376564 A 0.951007,0.951007 0 0 0 0.50266006,9.6839722 0.951007,0.951007 0 0 0 0.31799855,10.237955 v 1.735819 a 0.951007,0.951007 0 0 0 0.21236083,0.581684 0.951007,0.951007 0 0 0 -0.24929314,0.646314 v 0.618617 A 0.951007,0.951007 0 0 0 1.2320734,14.762167 H 14.767765 a 0.951007,0.951007 0 0 0 0.951007,-0.941774 v -0.618616 a 0.951007,0.951007 0 0 0 -0.230827,-0.618616 0.951007,0.951007 0 0 0 -0.09233,-1.329563 l -0.26776,-0.230827 a 0.951007,0.951007 0 0 0 0.415489,-0.738647 L 15.718777,6.9879181 A 0.951007,0.951007 0 0 0 15.441785,6.267738 0.951007,0.951007 0 0 0 15.43257,6.2585226 0.951007,0.951007 0 0 0 14.601593,5.7599365 h -0.0831 L 13.872156,3.931791 A 0.951007,0.951007 0 0 0 12.80112,3.3131749 V 2.3714009 A 0.951007,0.951007 0 0 0 12.754957,2.0944087 0.951007,0.951007 0 0 0 12.016311,0.86640901 L 10.188161,0.5524847 a 0.951007,0.951007 0 0 0 -0.184661,0 z"
     inkscape:connector-curvature="0" />

</g>%n%n
<g transform="translate(138.000000, 8.000000) scale(2.000000 2.000000) "> 

<g id="surface1">
<path style=" stroke:none;fill-rule:nonzero;fill:rgb(26.666668%,26.666668%,26.666668%);fill-opacity:1;" d="M 3.601562 9.5 L 4.167969 8.09375 L 0.539062 8.09375 L 0.539062 9.5 Z M 3.601562 9.5 "/>
<path style=" stroke:none;fill-rule:nonzero;fill:rgb(26.666668%,26.666668%,26.666668%);fill-opacity:1;" d="M 4.925781 6.71875 L 4.167969 7.691406 L 0.683594 7.691406 L 2.023438 6.464844 Z M 4.925781 6.71875 "/>
<path style=" stroke:none;fill-rule:nonzero;fill:rgb(26.666668%,26.666668%,26.666668%);fill-opacity:1;" d="M 3.828125 9.5 L 4.925781 8.796875 L 4.925781 7.078125 L 4.359375 8.09375 Z M 3.828125 9.5 "/>
<path style=" stroke:none;fill-rule:nonzero;fill:rgb(26.666668%,26.666668%,26.666668%);fill-opacity:1;" d="M 8.28125 9.5 L 10.050781 6.761719 L 6.199219 5.75 L 5.246094 8.09375 Z M 8.28125 9.5 "/>
<path style=" stroke:none;fill-rule:nonzero;fill:rgb(26.666668%,26.666668%,26.666668%);fill-opacity:1;" d="M 6.550781 5.226562 L 11.359375 5.226562 L 10.050781 6.46875 Z M 6.550781 5.226562 "/>
<path style=" stroke:none;fill-rule:nonzero;fill:rgb(26.666668%,26.666668%,26.666668%);fill-opacity:1;" d="M 8.8125 9.5 L 11.359375 8.09375 L 11.5 5.414062 L 10.300781 6.675781 Z M 8.8125 9.5 "/>
<path style=" stroke:none;fill-rule:nonzero;fill:rgb(26.666668%,26.666668%,26.666668%);fill-opacity:1;" d="M 5.558594 6.46875 L 5.558594 5.214844 L 1.390625 3.894531 L 1 5.75 Z M 5.558594 6.46875 "/>
<path style=" stroke:none;fill-rule:nonzero;fill:rgb(26.666668%,26.666668%,26.666668%);fill-opacity:1;" d="M 5.558594 8.796875 L 5.101562 9.5 L 6.761719 9.5 Z M 5.558594 8.796875 "/>
<path style=" stroke:none;fill-rule:nonzero;fill:rgb(26.666668%,26.666668%,26.666668%);fill-opacity:1;" d="M 10.6875 8.796875 L 9.664062 9.5 L 11.5 9.5 Z M 10.6875 8.796875 "/>
<path style=" stroke:none;fill-rule:nonzero;fill:rgb(26.666668%,26.666668%,26.666668%);fill-opacity:1;" d="M 8.035156 2.210938 L 6.550781 4.738281 L 4.167969 3.894531 L 5.242188 1.871094 Z M 8.035156 2.210938 "/>
<path style=" stroke:none;fill-rule:nonzero;fill:rgb(26.666668%,26.666668%,26.666668%);fill-opacity:1;" d="M 9.132812 1.238281 L 8.246094 1.871094 L 5.558594 1.492188 L 7.648438 0.988281 Z M 9.132812 1.238281 "/>
<path style=" stroke:none;fill-rule:nonzero;fill:rgb(26.666668%,26.666668%,26.666668%);fill-opacity:1;" d="M 9.132812 3.558594 L 9.132812 1.703125 L 8.351562 2.378906 L 6.761719 4.738281 Z M 9.132812 3.558594 "/>
<path style=" stroke:none;fill-rule:nonzero;fill:rgb(26.666668%,26.666668%,26.666668%);fill-opacity:1;" d="M 8.210938 4.527344 L 10.578125 4.738281 L 10.050781 3.21875 L 9.664062 3.894531 Z M 8.210938 4.527344 "/>
<path style=" stroke:none;fill-rule:nonzero;fill:rgb(26.666668%,26.666668%,26.666668%);fill-opacity:1;" d="M 4.375 2.292969 L 3.6875 3.476562 L 3.828125 4.191406 L 2.550781 3.695312 L 2.519531 2.925781 Z M 4.375 2.292969 "/>
<path style=" stroke:none;fill-rule:evenodd;fill:rgb(26.666668%,26.666668%,26.666668%);fill-opacity:1;" d="M 0.5 10.5 L 0.5 11 L 11.5 11 L 11.5 10.5 Z M 0.5 10.5 "/>
</g>

</g>%n%n</svg>

<svg width="300" height="40" viewBox="0 0 300 40" fill="none" xmlns="http://www.w3.org/2000/svg" xmlns:xlink="http://www.w3.org/1999/xlink" version="1.1">

<g transform="translate(130.000000, 0.000000) scale(2.500000 2.500000) "> 

 <path d="m9.9943 0.55246a0.95101 0.95101 0 0 0-0.18466 0.018463l-2.5853 0.61862a0.95101 0.95101 0 0 0-0.65555 0.58168 0.95101 0.95101 0 0 0-0.35086 0.36932l-0.018466 0.036936a0.95101 0.95101 0 0 0-0.50782 0.0277l-2.2898 0.77558a0.95101 0.95101 0 0 0-0.64632 0.94177l0.018466 0.30469-0.17543-0.064636a0.95101 0.95101 0 0 0-1.2095 0.71095l-0.47089 2.2898a0.95101 0.95101 0 0 0 0.73865 1.1172l-0.84021 0.75711a0.95101 0.95101 0 0 0-0.31392 0.64632 0.95101 0.95101 0 0 0-0.18466 0.55398v1.7358a0.95101 0.95101 0 0 0 0.21236 0.58168 0.95101 0.95101 0 0 0-0.24929 0.64631v0.61862a0.95101 0.95101 0 0 0 0.95101 0.94178h13.536a0.95101 0.95101 0 0 0 0.95101-0.94177v-0.61862a0.95101 0.95101 0 0 0-0.23083-0.61862 0.95101 0.95101 0 0 0-0.09233-1.3296l-0.26776-0.23083a0.95101 0.95101 0 0 0 0.41549-0.73865l0.17543-3.2962a0.95101 0.95101 0 0 0-0.27699-0.72018 0.95101 0.95101 0 0 0-0.009215-0.0092154 0.95101 0.95101 0 0 0-0.83098-0.49859h-0.0831l-0.64634-1.8281a0.95101 0.95101 0 0 0-1.071-0.61862v-0.94177a0.95101 0.95101 0 0 0-0.046163-0.27699 0.95101 0.95101 0 0 0-0.73865-1.228l-1.8282-0.31392a0.95101 0.95101 0 0 0-0.18466 0z" fill="#ebe7e4" opacity=".812"/>

</g>%n%n
<g transform="translate(138.000000, 8.000000) scale(2.000000 2.000000) "> 

<g id="surface1">
<path style=" stroke:none;fill-rule:nonzero;fill:rgb(26.666668%,26.666668%,26.666668%);fill-opacity:1;" d="M 3.601562 9.5 L 4.167969 8.09375 L 0.539062 8.09375 L 0.539062 9.5 Z M 3.601562 9.5 "/>
<path style=" stroke:none;fill-rule:nonzero;fill:rgb(26.666668%,26.666668%,26.666668%);fill-opacity:1;" d="M 4.925781 6.71875 L 4.167969 7.691406 L 0.683594 7.691406 L 2.023438 6.464844 Z M 4.925781 6.71875 "/>
<path style=" stroke:none;fill-rule:nonzero;fill:rgb(26.666668%,26.666668%,26.666668%);fill-opacity:1;" d="M 3.828125 9.5 L 4.925781 8.796875 L 4.925781 7.078125 L 4.359375 8.09375 Z M 3.828125 9.5 "/>
<path style=" stroke:none;fill-rule:nonzero;fill:rgb(26.666668%,26.666668%,26.666668%);fill-opacity:1;" d="M 8.28125 9.5 L 10.050781 6.761719 L 6.199219 5.75 L 5.246094 8.09375 Z M 8.28125 9.5 "/>
<path style=" stroke:none;fill-rule:nonzero;fill:rgb(26.666668%,26.666668%,26.666668%);fill-opacity:1;" d="M 6.550781 5.226562 L 11.359375 5.226562 L 10.050781 6.46875 Z M 6.550781 5.226562 "/>
<path style=" stroke:none;fill-rule:nonzero;fill:rgb(26.666668%,26.666668%,26.666668%);fill-opacity:1;" d="M 8.8125 9.5 L 11.359375 8.09375 L 11.5 5.414062 L 10.300781 6.675781 Z M 8.8125 9.5 "/>
<path style=" stroke:none;fill-rule:nonzero;fill:rgb(26.666668%,26.666668%,26.666668%);fill-opacity:1;" d="M 5.558594 6.46875 L 5.558594 5.214844 L 1.390625 3.894531 L 1 5.75 Z M 5.558594 6.46875 "/>
<path style=" stroke:none;fill-rule:nonzero;fill:rgb(26.666668%,26.666668%,26.666668%);fill-opacity:1;" d="M 5.558594 8.796875 L 5.101562 9.5 L 6.761719 9.5 Z M 5.558594 8.796875 "/>
<path style=" stroke:none;fill-rule:nonzero;fill:rgb(26.666668%,26.666668%,26.666668%);fill-opacity:1;" d="M 10.6875 8.796875 L 9.664062 9.5 L 11.5 9.5 Z M 10.6875 8.796875 "/>
<path style=" stroke:none;fill-rule:nonzero;fill:rgb(26.666668%,26.666668%,26.666668%);fill-opacity:1;" d="M 8.035156 2.210938 L 6.550781 4.738281 L 4.167969 3.894531 L 5.242188 1.871094 Z M 8.035156 2.210938 "/>
<path style=" stroke:none;fill-rule:nonzero;fill:rgb(26.666668%,26.666668%,26.666668%);fill-opacity:1;" d="M 9.132812 1.238281 L 8.246094 1.871094 L 5.558594 1.492188 L 7.648438 0.988281 Z M 9.132812 1.238281 "/>
<path style=" stroke:none;fill-rule:nonzero;fill:rgb(26.666668%,26.666668%,26.666668%);fill-opacity:1;" d="M 9.132812 3.558594 L 9.132812 1.703125 L 8.351562 2.378906 L 6.761719 4.738281 Z M 9.132812 3.558594 "/>
<path style=" stroke:none;fill-rule:nonzero;fill:rgb(26.666668%,26.666668%,26.666668%);fill-opacity:1;" d="M 8.210938 4.527344 L 10.578125 4.738281 L 10.050781 3.21875 L 9.664062 3.894531 Z M 8.210938 4.527344 "/>
<path style=" stroke:none;fill-rule:nonzero;fill:rgb(26.666668%,26.666668%,26.666668%);fill-opacity:1;" d="M 4.375 2.292969 L 3.6875 3.476562 L 3.828125 4.191406 L 2.550781 3.695312 L 2.519531 2.925781 Z M 4.375 2.292969 "/>
<path style=" stroke:none;fill-rule:evenodd;fill:rgb(26.666668%,26.666668%,26.666668%);fill-opacity:1;" d="M 0.5 10.5 L 0.5 11 L 11.5 11 L 11.5 10.5 Z M 0.5 10.5 "/>
</g>

</g>%n%n</svg>
